static/assets/img/icons/theme/weather/snow-2.svg

<svg height="24" viewBox="0 0 24 24" width="24" xmlns="http://www.w3.org/2000/svg"><g fill="none" fill-rule="evenodd"><path d="m0 0h24v24h-24z" opacity="0"/><g fill="#000"><path d="m5.74714567 14.0425758c-1.65304205-1.0685402-2.74714567-2.9277872-2.74714567-5.0425758 0-3.3137085 2.6862915-6 6-6 2.7957591 0 5.1449096 1.91215918 5.8109738 4.5h2.4390262c2.0710678 0 3.75 1.67893219 3.75 3.75 0 2.0710678-1.6789322 3.75-3.75 3.75h-9c-.96182105 0-1.83906822-.3621038-2.50285433-.9574242z"/><path d="m11.9058667 18.1192596c.5334661.1429418.8500486.6912788.7071067 1.2247449-.1429418.5334661-.6912787.8500486-1.2247448.7071068-.5334661-.1429419-.8500486-.6912788-.7071068-1.2247449s.6912788-.8500486 1.2247449-.7071068zm4 0c.5334661.1429418.8500486.6912788.7071067 1.2247449-.1429418.5334661-.6912787.8500486-1.2247448.7071068-.5334661-.1429419-.8500486-.6912788-.7071068-1.2247449s.6912788-.8500486 1.2247449-.7071068zm-8.00000004 0c.5334661.1429418.85004859.6912788.70710678 1.2247449s-.69127877.8500486-1.22474487.7071068c-.53346611-.1429419-.8500486-.6912788-.70710678-1.2247449.14294181-.5334661.69127876-.8500486 1.22474487-.7071068z" opacity=".3"/></g></g></svg>

<svg width="24px" height="24px" viewBox="0 0 24 24" version="1.1" xmlns="http://www.w3.org/2000/svg" xmlns:xlink="http://www.w3.org/1999/xlink">
    <title>Icon For Snow#2</title>
    <g stroke="none" stroke-width="1" fill="none" fill-rule="evenodd">
        <polygon points="0 0 24 0 24 24 0 24" opacity="0"></polygon>
        <path d="M5.74714567,14.0425758 C4.09410362,12.9740356 3,11.1147886 3,9 C3,5.6862915 5.6862915,3 9,3 C11.7957591,3 14.1449096,4.91215918 14.8109738,7.5 L17.25,7.5 C19.3210678,7.5 21,9.17893219 21,11.25 C21,13.3210678 19.3210678,15 17.25,15 L8.25,15 C7.28817895,15 6.41093178,14.6378962 5.74714567,14.0425758 Z" fill="#000000"></path>
        <path d="M11.9058667,18.1192596 C12.4393328,18.2622014 12.7559153,18.8105384 12.6129734,19.3440045 C12.4700316,19.8774706 11.9216947,20.1940531 11.3882286,20.0511113 C10.8547625,19.9081694 10.53818,19.3598325 10.6811218,18.8263664 C10.8240636,18.2929003 11.3724006,17.9763178 11.9058667,18.1192596 Z M15.9058667,18.1192596 C16.4393328,18.2622014 16.7559153,18.8105384 16.6129734,19.3440045 C16.4700316,19.8774706 15.9216947,20.1940531 15.3882286,20.0511113 C14.8547625,19.9081694 14.53818,19.3598325 14.6811218,18.8263664 C14.8240636,18.2929003 15.3724006,17.9763178 15.9058667,18.1192596 Z M7.90586666,18.1192596 C8.43933276,18.2622014 8.75591525,18.8105384 8.61297344,19.3440045 C8.47003163,19.8774706 7.92169467,20.1940531 7.38822857,20.0511113 C6.85476246,19.9081694 6.53817997,19.3598325 6.68112179,18.8263664 C6.8240636,18.2929003 7.37240055,17.9763178 7.90586666,18.1192596 Z" fill="#000000" opacity="0.3"></path>
    </g>
</svg>
